papirus/16x16/apps/tor.svg

<svg height="16" width="16" xmlns="http://www.w3.org/2000/svg"><path d="m75.53-26.561c-11.08 0-20 8.92-20 20 0 .16772-.004.33329 0 .5.26444-10.846 9.0877-19.5 20-19.5 10.9123 0 19.736 8.6537 20 19.5.004-.16671 0-.33228 0-.5 0-11.08-8.92-20-20-20z" fill="#fff" opacity=".1"/><path d="m8.8887501 1.2806667l-.02625 1.7789444c.6525001-1.0742778 1.3162499-2.3468333 2.5062499-3.0596111-.87.8403333-1.290625 2.1449444-1.7768749 2.9852778.8187499-.9574444 2.1668749-2.2112778 3.4081249-2.5623333-1.650625 1.2233333-3.2087498 3.2579999-4.2068749 4.5770555l-.7931251-.2872223c.1406187-1.053111.1849438-2.389611.8886876-3.4321666z" fill="#abcd03" fill-rule="evenodd"/><path d="m7.130685 3.6922452l-.161837.1220533c.8103769 1.4284681.3864461 2.1855015-.0125459 2.4541123-.8103769.5494553-1.9947457 1.233333-2.5806053 1.8315998-1.1345644 1.1354885-1.4584462 2.2219314-1.358654 3.6504614.1121854 1.831538 1.4710348 3.357728 3.2910678 3.955994.7980938.256612 1.5332446.293534 2.3563935.293534 1.3211939 0 2.6802759-.342148 3.6647539-1.148288 1.047422-.85414 1.670742-2.13658 1.670742-3.467019 0-1.343054-.573393-2.6126322-1.583233-3.5161246-.536097-.476152-1.209179-.8669392-1.907359-1.2455174-.311635-.1710248-1.2717552-.9036155-.9476288-1.9536285l-1.0969208-.1466252.0899109.0438269-.2387804-.0970691-1.1851022-.7769714zm1.5886712.9551223h.0004205c.00556.1898614.00483.374289.00336.5529137-.00403-.2259531-.00372-.4296235-.00372-.5529137z" fill="#7d529d" fill-rule="evenodd"/></svg>

<?xml version="1.0" encoding="UTF-8" standalone="no"?>
<!-- Created with Inkscape (http://www.inkscape.org/) -->

<svg
   xmlns:dc="http://purl.org/dc/elements/1.1/"
   xmlns:cc="http://creativecommons.org/ns#"
   xmlns:rdf="http://www.w3.org/1999/02/22-rdf-syntax-ns#"
   xmlns:svg="http://www.w3.org/2000/svg"
   xmlns="http://www.w3.org/2000/svg"
   xmlns:sodipodi="http://sodipodi.sourceforge.net/DTD/sodipodi-0.dtd"
   xmlns:inkscape="http://www.inkscape.org/namespaces/inkscape"
   id="svg2817"
   height="16"
   width="16"
   version="1.0"
   inkscape:version="0.91 r13725"
   sodipodi:docname="tor.svg">
  <defs
     id="defs12" />
  <sodipodi:namedview
     pagecolor="#ffffff"
     bordercolor="#666666"
     borderopacity="1"
     objecttolerance="10"
     gridtolerance="10"
     guidetolerance="10"
     inkscape:pageopacity="0"
     inkscape:pageshadow="2"
     inkscape:window-width="1600"
     inkscape:window-height="847"
     id="namedview10"
     showgrid="false"
     inkscape:zoom="7.375"
     inkscape:cx="-6.0338983"
     inkscape:cy="16"
     inkscape:window-x="0"
     inkscape:window-y="0"
     inkscape:window-maximized="1"
     inkscape:current-layer="svg2817" />
  <metadata
     id="metadata57">
    <rdf:RDF>
      <cc:Work
         rdf:about="">
        <dc:format>image/svg+xml</dc:format>
        <dc:type
           rdf:resource="http://purl.org/dc/dcmitype/StillImage" />
        <dc:title></dc:title>
      </cc:Work>
    </rdf:RDF>
  </metadata>
  <path
     id="rect3436"
     d="m 75.53,-26.561 c -11.08,0 -20,8.92 -20,20 0,0.16772 -0.004,0.33329 0,0.5 0.26444,-10.846 9.0877,-19.5 20,-19.5 10.9123,0 19.736,8.6537 20,19.5 0.004,-0.16671 0,-0.33228 0,-0.5 0,-11.08 -8.92,-20 -20,-20 z"
     inkscape:connector-curvature="0"
     style="opacity:0.1;fill:#ffffff" />
  <path
     style="fill:#abcd03;fill-rule:evenodd"
     inkscape:connector-curvature="0"
     id="path2554"
     d="m 8.8887501,1.2806667 -0.02625,1.7789444 C 9.5150002,1.9853333 10.17875,0.7127778 11.36875,0 10.49875,0.8403333 10.078125,2.1449444 9.5918751,2.9852778 10.410625,2.0278334 11.75875,0.774 13,0.4229445 11.349375,1.6462778 9.7912502,3.6809444 8.7931251,5 L 8,4.7127777 C 8.1406187,3.6596667 8.1849438,2.3231667 8.8886876,1.2806111 Z" />
  <path
     style="fill:#7d529d;fill-rule:evenodd"
     inkscape:connector-curvature="0"
     id="path2534"
     d="M 7.130685,3.6922452 6.968848,3.8142985 C 7.7792249,5.2427666 7.3552941,5.9998 6.9563021,6.2684108 6.1459252,6.8178661 4.9615564,7.5017438 4.3756968,8.1000106 3.2411324,9.2354991 2.9172506,10.321942 3.0170428,11.750472 3.1292282,13.58201 4.4880776,15.1082 6.3081106,15.706466 7.1062044,15.963078 7.8413552,16 8.6645041,16 9.985698,16 11.34478,15.657852 12.329258,14.851712 13.37668,13.997572 14,12.715132 14,11.384693 14,10.041639 13.426607,8.7720608 12.416767,7.8685684 11.88067,7.3924164 11.207588,7.0016292 10.509408,6.623051 10.197773,6.4520262 9.2376528,5.7194355 9.5617792,4.6694225 L 8.4648584,4.5227973 8.5547693,4.5666242 8.3159889,4.4695551 7.1308867,3.6925837 Z m 1.5886712,0.9551223 4.205e-4,0 c 0.00556,0.1898614 0.00483,0.374289 0.00336,0.5529137 -0.00403,-0.2259531 -0.00372,-0.4296235 -0.00372,-0.5529137 z" />
</svg>
